X:513
T: ALLGEMACH AUS DAEMMERUNG UND NACHT
N: F0985
O: Europa, Mitteleuropa, Deutschland
R: Natur - Lied
M: 4/4
L: 1/16
K: Eb
G3A | B6c2B2A2(3G2A2F2 | E12
E2E2 | c6B2A2G2A2cB | G8z4
G2G2 | e6d2c2d2e2f2 | f3BB4z4
(3B2c2d2 | e6c2B2A2(3G2A2F2 | F3EE4z4

@@@ Tune index: 5944
